X: 2377
M: C
L: 1/8
K: Bb
(uFE) |\
[1,3 (fe)(ed) (dc)(cB) | Bd F4 |\
[2,4 (fe)cA F2GA | B2d2B2 :|
|: (ubg) |\
fdBF DFBd | ecAF EFCE |\
[1,3 DFBA GBed | c=Bcd c2 :|\
[2,4 DFBF GecA | B2d2B2 :|


